C/src/images/icons/flexibility.svg

<svg viewBox="0 0 83.72 102.33" xmlns="http://www.w3.org/2000/svg"><path d="m47.35 9.83 26.39 15.45s14.87 9.28 5.26 25.88c-11 18.84-25.45 7.31-25.45 7.31l-22.55-15.4s-15-10.54-25.47 5.87 2.47 24.52 2.47 24.52l27 17.07" fill="none" stroke="#60c091" stroke-miterlimit="10" stroke-width="3"/><g fill="#60c091"><path d="m43.94 23.49-13.37-23.49 27 .16z"/><path d="m23.05 101.11 30.69 1.22-14.29-27.19z"/></g></svg>

<svg xmlns="http://www.w3.org/2000/svg" viewBox="0 0 83.72 102.33">
  <defs>
    <style>.cls-1{fill:none;stroke:#60c091;stroke-miterlimit:10;stroke-width:3px;}.cls-2{fill:#60c091;}</style>
  </defs>
  <title>flexibility</title>
  <g id="Layer_2" data-name="Layer 2">
    <g id="Layer_1-2" data-name="Layer 1">
      <g id="flexibility_m" data-name="flexibility m">
        <path id="Path_202" data-name="Path 202" vector-effect="non-scaling-stroke" class="cls-1" d="M47.35,9.83,73.74,25.28S88.61,34.56,79,51.16C68,70,53.55,58.47,53.55,58.47L31,43.07S16,32.53,5.53,48.94,8,73.46,8,73.46l27,17.07"/>
        <g id="Group_1440" data-name="Group 1440">
          <path id="Path_203" data-name="Path 203" vector-effect="non-scaling-stroke" class="cls-2" d="M43.94,23.49,30.57,0l27,.16Z"/>
        </g>
        <g id="Group_1441" data-name="Group 1441">
          <path id="Path_204" data-name="Path 204" vector-effect="non-scaling-stroke" class="cls-2" d="M23.05,101.11l30.69,1.22L39.45,75.14Z"/>
        </g>
      </g>
    </g>
  </g>
</svg>
